img/svg/sony-icon.svg

<svg width="150" height="32" viewBox="0 0 150 32" fill="none" xmlns="http://www.w3.org/2000/svg">
<path d="M133.331 5.05148H146.284V7.78917H143.734C142.653 7.78917 141.758 8.1641 141.032 8.91565L132.368 18.1589V22.6362C132.368 23.3877 132.74 23.7626 133.5 23.7626H136.709V26.5003H121.086V23.7626H124.312C125.072 23.7626 125.427 23.3877 125.427 22.6362V18.4494L116.543 8.91565C115.817 8.1641 114.922 7.78917 113.841 7.78917H111.308V5.05148H127.217V7.78917H125.629C125.258 7.78917 125.005 7.92259 124.886 8.19112C124.785 8.45965 124.819 8.70116 125.021 8.91565L130.274 14.5194L135.526 8.91565C135.712 8.70116 135.763 8.45965 135.645 8.19112C135.543 7.92259 135.29 7.78917 134.901 7.78917H133.331V5.05148ZM104.738 26.5003H100.313L82.6997 11.4287V22.6362C82.6997 23.3877 83.0763 23.7626 83.8245 23.7626H87.0485V26.5003H73.8752V23.7626H77.0959C77.8475 23.7626 78.2224 23.3877 78.2224 22.6362V8.91565C78.2224 8.1641 77.8475 7.78917 77.0959 7.78917H73.8752V5.05148H84.9189L100.245 18.1589V8.91565C100.245 8.1641 99.8739 7.78917 99.1308 7.78917H95.905V5.05148H109.078V7.78917H105.853C105.093 7.78917 104.738 8.1641 104.738 8.91565V26.5003ZM54.4243 3.71558C44.3873 3.71558 37.7415 8.88188 37.7415 15.7759C37.7415 22.6699 44.3873 27.8362 54.4243 27.8362C64.4631 27.8362 71.1088 22.6699 71.1088 15.7759C71.1088 8.88188 64.4631 3.71558 54.4243 3.71558ZM54.4243 6.93121C60.1818 6.93121 63.9919 10.7194 63.9919 15.7759C63.9919 20.8307 60.1818 24.6206 54.4243 24.6206C48.6686 24.6206 44.8568 20.8307 44.8568 15.7759C44.8568 10.7194 48.6686 6.93121 54.4243 6.93121ZM28.7398 4.79646H31.4775V12.0401H28.7398C27.3752 7.54934 20.5909 6.87717 16.3366 6.87717C12.616 6.87717 9.8361 7.85503 9.8361 9.74489C9.8361 11.9286 15.07 11.9911 19.3023 12.5636C24.7523 13.3017 32.7002 13.175 32.7002 20.2987C32.7002 25.9193 25.2353 27.8261 20.5605 27.8362C12.1904 27.8548 9.5929 25.4448 7.6777 25.4448C7.1457 25.4448 6.8721 25.9582 6.8721 26.985H4.13442V18.8564H6.8721C7.90063 23.7559 15.4331 24.8233 18.6082 24.8233C20.8578 24.8233 26.6473 24.3825 26.6473 21.7073C26.6473 19.1722 22.9317 19.304 18.419 18.6605C13.4723 17.9529 3.71558 17.7992 3.71558 11.221C3.71558 6.14419 9.40374 3.71558 15.786 3.71558C23.1986 3.71558 26.8634 6.12224 27.9612 6.12224C28.4797 6.12224 28.7398 5.64597 28.7398 4.79646Z" fill="#20484F"/>
</svg>

<svg width="150" height="32" fill="none" xmlns="http://www.w3.org/2000/svg"><path d="M133.331 5.051h12.953V7.79h-2.55c-1.081 0-1.976.375-2.702 1.127l-8.664 9.243v4.477c0 .752.372 1.127 1.132 1.127h3.209V26.5h-15.623v-2.737h3.226c.76 0 1.115-.375 1.115-1.127V18.45l-8.884-9.533c-.726-.752-1.621-1.127-2.702-1.127h-2.533V5.051h15.909V7.79h-1.588c-.371 0-.624.134-.743.402-.101.269-.067.51.135.725l5.253 5.603 5.252-5.603c.186-.215.237-.456.119-.725-.102-.268-.355-.402-.744-.402h-1.57V5.051Zm-28.593 21.45h-4.425L82.7 11.428v11.207c0 .752.376 1.127 1.124 1.127h3.225V26.5H73.875v-2.737h3.22c.752 0 1.127-.375 1.127-1.127V8.916c0-.752-.374-1.127-1.126-1.127h-3.22V5.051h11.043l15.326 13.108V8.916c0-.752-.371-1.127-1.114-1.127h-3.226V5.051h13.173V7.79h-3.225c-.76 0-1.115.375-1.115 1.127V26.5ZM54.424 3.715c-10.037 0-16.682 5.166-16.682 12.06s6.645 12.06 16.682 12.06c10.04 0 16.685-5.166 16.685-12.06s-6.646-12.06-16.685-12.06Zm0 3.215c5.758 0 9.568 3.788 9.568 8.845 0 5.055-3.81 8.845-9.568 8.845-5.755 0-9.567-3.79-9.567-8.845 0-5.057 3.812-8.845 9.567-8.845ZM28.74 4.796h2.738v7.244H28.74c-1.365-4.49-8.15-5.163-12.403-5.163-3.721 0-6.5.978-6.5 2.868 0 2.184 5.233 2.246 9.465 2.819 5.45.738 13.398.611 13.398 7.735 0 5.62-7.465 7.527-12.14 7.537-8.37.019-10.967-2.391-12.882-2.391-.532 0-.806.513-.806 1.54H4.134v-8.129h2.738c1.029 4.9 8.561 5.967 11.736 5.967 2.25 0 8.04-.44 8.04-3.116 0-2.535-3.716-2.403-8.229-3.047-4.947-.707-14.703-.86-14.703-7.439 0-5.077 5.688-7.505 12.07-7.505 7.413 0 11.077 2.406 12.175 2.406.519 0 .779-.476.779-1.326Z" fill="#20484F"/></svg>
